svgs/sharp-regular/timeline-arrow.svg

<svg xmlns="http://www.w3.org/2000/svg" viewBox="0 0 640 512"><!--! Font Awesome Pro 6.6.0 by @fontawesome - https://fontawesome.com License - https://fontawesome.com/license (Commercial License) Copyright 2024 Fonticons, Inc. --><path d="M96 64l0 64 8 0 48 0 8 0 0-64L96 64zm64 112l-8 0 0 56 176 0 0-56-8 0-48 0 0-48 0-64 0-48 48 0 64 0 48 0 0 48 0 64 0 48-48 0-8 0 0 56 162.3 0-50.5-46.3-17.7-16.2 32.4-35.4 17.7 16.2 96 88L635.5 256l-19.3 17.7-96 88-17.7 16.2-32.4-35.4 17.7-16.2L538.3 280 248 280l0 56 8 0 48 0 0 48 0 64 0 48-48 0-64 0-48 0 0-48 0-64 0-48 48 0 8 0 0-56L24 280 0 280l0-48 24 0 80 0 0-56-8 0-48 0 0-48 0-64 0-48 48 0 64 0 48 0 0 48 0 64 0 48-48 0zm40 208l-8 0 0 64 64 0 0-64-8 0-48 0zM384 64l-64 0 0 64 64 0 0-64z"/></svg>

<svg xmlns="http://www.w3.org/2000/svg" viewBox="0 0 640 512"><!--! Font Awesome Pro 6.4.2 by @fontawesome - https://fontawesome.com License - https://fontawesome.com/license (Commercial License) Copyright 2023 Fonticons, Inc. --><path d="M96 64v64h8 48 8V64H96zm64 112h-8v56H328V176h-8H272V128 64 16h48 64 48V64v64 48H384h-8v56H538.3l-50.5-46.3-17.7-16.2 32.4-35.4 17.7 16.2 96 88L635.5 256l-19.3 17.7-96 88-17.7 16.2-32.4-35.4 17.7-16.2L538.3 280H248v56h8 48v48 64 48H256 192 144V448 384 336h48 8V280H24 0V232H24h80V176H96 48V128 64 16H96h64 48V64v64 48H160zm40 208h-8v64h64V384h-8H200zM384 64H320v64h64V64z"/></svg>
